!!!OTL: Villikens and His Dinah
!!!ONM: 18.
**kern
*clefG2
*k[]
*C:
*M6/8
*MM96
{8c
=1
8g
8g
8g
8g
8a
8g
=2
8f
8e
8d
4c}
{8g
=3
8cc
8g
8a
8g
8f
16e
16e
=4
8d
8e
8a
4g}
{8g
=5
8cc
8g
8a
8g
8f
8e
=6
8d
8e
8a
4g}
{8g
=7
8g
8g
8g
8g
8a
8g
=8
8f
8e
8d
4c}
=||
{16g
16g
=9
8cc
8g
8a
8g
8f
8e
=10
8d
8e
8a
4g}
{8g
=11
8g
8g
8g
8g
8a
8g
=12
8f
8e
8d
4c}
==
*-
!!!CNT: Folksongs of Maritime Canada
!!!MRD: 1928///-1932///
!!!OCL: Helen Creighton
!!!YOR: Songs and Ballads from Nova Scotia
!!!PPR: J.M. Dent & Sons, Limited
!!!PPP: Toronto, Canada
!!!PDT: 1932///
!!!reprint: Dover Publications, 1992: ISBN 0-486-21703-5
!!!ENC1: Craig Stuart Sapp (music and bibliographic data)                       
!!!ENC2: Marcus Pearce (phrase markings and key designations)                   
!!!ENC3: Darrell Conklin (phrase markings and key designations)   
!!!END: 2002/04/10/
!!!EEV: 2004/06/05
!!!MPN: Miss Marion Henneberry and Miss Audrey Henneberry
!!!PPG: 36
!!!EFL: 18/152
!!!ARE: Canada; Nova Scotia
!!!verses: 6
!!!VTS: 1187331223
